lib/svgs/repeat.svg

<?xml version="1.0" encoding="UTF-8" standalone="no"?>
<svg width="20px" height="20px" viewBox="0 0 20 20" version="1.1" xmlns="http://www.w3.org/2000/svg" xmlns:xlink="http://www.w3.org/1999/xlink">
    <defs></defs>
    <g id="Icons" stroke="none" stroke-width="1" fill="none" fill-rule="evenodd">
        <g id="Web" transform="translate(-337.000000, -1230.000000)" fill="#000000">
            <g id="date/repeat" transform="translate(337.000000, 1230.000000)">
                <path d="M17.4005,9.4092 C17.0685,9.4092 16.8005,9.6772 16.7995,10.0092 C16.7955,13.7552 13.7455,16.8012 10.0005,16.8012 L9.9915,16.8012 C6.2415,16.7952 3.1955,13.7402 3.2005,9.9912 C3.2025,8.1752 3.9115,6.4682 5.1975,5.1852 C6.4815,3.9052 8.1865,3.2002 9.9995,3.2002 L10.0085,3.2002 C12.0245,3.2022 13.8795,4.0782 15.1725,5.6032 L12.9045,5.5992 L12.9035,5.5992 C12.5725,5.5992 12.3045,5.8672 12.3035,6.1992 C12.3035,6.5302 12.5715,6.7992 12.9025,6.8002 L16.3525,6.8042 L16.3535,6.8042 C16.6845,6.8042 16.9535,6.5362 16.9535,6.2052 L16.9585,2.7562 C16.9585,2.4242 16.6905,2.1552 16.3585,2.1552 C16.0265,2.1552 15.7585,2.4232 15.7575,2.7542 L15.7555,4.4452 C14.2575,2.8842 12.2125,2.0022 10.0105,2.0002 L9.9995,2.0002 C7.8665,2.0002 5.8605,2.8292 4.3505,4.3362 C2.8375,5.8452 2.0025,7.8532 2.0005,9.9902 C1.9945,14.4002 5.5785,17.9942 9.9905,18.0002 L9.9995,18.0002 C14.4065,18.0002 17.9945,14.4182 18.0005,10.0102 C18.0005,9.6792 17.7325,9.4092 17.4005,9.4092 M9.5807,6.0547 C9.2487,6.0547 8.9807,6.3237 8.9807,6.6547 L8.9807,10.3347 C8.9807,10.5487 9.0947,10.7467 9.2807,10.8537 L12.4677,12.6937 C12.5617,12.7487 12.6647,12.7747 12.7667,12.7747 C12.9747,12.7747 13.1757,12.6667 13.2867,12.4737 C13.4527,12.1877 13.3537,11.8207 13.0667,11.6547 L10.1807,9.9887 L10.1807,6.6547 C10.1807,6.3237 9.9127,6.0547 9.5807,6.0547" id="Shape"></path>
            </g>
        </g>
    </g>
</svg>

<svg xmlns="http://www.w3.org/2000/svg" viewBox="0 0 20 20">
    <path fill="#000" fill-rule="evenodd" d="M17.4 9.41a.6.6 0 0 0-.6.6A6.808 6.808 0 0 1 10 16.8h-.008A6.81 6.81 0 0 1 5.197 5.185 6.758 6.758 0 0 1 10 3.2h.01a6.73 6.73 0 0 1 5.163 2.403L12.904 5.6a.6.6 0 0 0-.002 1.201l3.45.004h.002a.6.6 0 0 0 .6-.599l.005-3.449a.6.6 0 0 0-1.201-.002l-.002 1.691A7.919 7.919 0 0 0 10.01 2H10a7.944 7.944 0 0 0-5.65 2.336A8.01 8.01 0 0 0 9.99 18H10a8.01 8.01 0 0 0 8-7.99.6.6 0 0 0-.6-.6M9.58 6.054a.6.6 0 0 0-.6.6v3.68c0 .214.115.412.3.519l3.188 1.84a.598.598 0 0 0 .819-.22.6.6 0 0 0-.22-.82L10.18 9.99V6.655a.6.6 0 0 0-.6-.6"/>
</svg>
